src/assets/hero/home-smile.svg

<svg width="24" height="24" viewBox="0 0 24 24" fill="none" xmlns="http://www.w3.org/2000/svg">
<path d="M8.12602 14.0007C8.57006 15.7259 10.1362 17.0007 12 17.0007C13.8638 17.0007 15.4299 15.7259 15.874 14.0007M11.0177 2.76473L4.23539 8.03986C3.78202 8.39248 3.55534 8.56879 3.39203 8.78959C3.24737 8.98518 3.1396 9.20552 3.07403 9.43978C3 9.70425 3 9.99143 3 10.5658V17.8007C3 18.9208 3 19.4809 3.21799 19.9087C3.40973 20.285 3.71569 20.591 4.09202 20.7827C4.51984 21.0007 5.07989 21.0007 6.2 21.0007H17.8C18.9201 21.0007 19.4802 21.0007 19.908 20.7827C20.2843 20.591 20.5903 20.285 20.782 19.9087C21 19.4809 21 18.9208 21 17.8007V10.5658C21 9.99143 21 9.70425 20.926 9.43978C20.8604 9.20552 20.7526 8.98518 20.608 8.78959C20.4447 8.56879 20.218 8.39248 19.7646 8.03986L12.9823 2.76473C12.631 2.49148 12.4553 2.35485 12.2613 2.30233C12.0902 2.25599 11.9098 2.25599 11.7387 2.30233C11.5447 2.35485 11.369 2.49148 11.0177 2.76473Z" stroke="white" stroke-width="2" stroke-linecap="round" stroke-linejoin="round"/>
</svg>

<svg width="24" height="24" fill="none" xmlns="http://www.w3.org/2000/svg"><path d="M8.126 14a4.002 4.002 0 0 0 7.748 0M11.018 2.766 4.235 8.04c-.453.352-.68.529-.843.75a2 2 0 0 0-.318.65C3 9.704 3 9.99 3 10.566V17.8c0 1.12 0 1.68.218 2.108a2 2 0 0 0 .874.874C4.52 21 5.08 21 6.2 21h11.6c1.12 0 1.68 0 2.108-.218a2 2 0 0 0 .874-.874C21 19.48 21 18.92 21 17.8v-7.235c0-.575 0-.862-.074-1.126a2.002 2.002 0 0 0-.318-.65c-.163-.221-.39-.398-.843-.75l-6.783-5.275c-.351-.274-.527-.41-.72-.463a1 1 0 0 0-.523 0c-.194.053-.37.19-.721.463Z" stroke="#fff" stroke-width="2" stroke-linecap="round" stroke-linejoin="round"/></svg>
